src/images/icon-share-blue.svg

<svg fill="none" height="18" viewBox="0 0 18 18" width="18" xmlns="http://www.w3.org/2000/svg"><path clip-rule="evenodd" d="m14 5-5-5-5 5h3v6h4v-6zm-14 3h4v6h10v-6h4v10h-18z" fill="#0072ce" fill-rule="evenodd"/></svg>

<svg width="18" height="18" viewBox="0 0 18 18" fill="none" xmlns="http://www.w3.org/2000/svg">
<path fill-rule="evenodd" clip-rule="evenodd" d="M14 5L9 0L4 5H7V11H11V5H14ZM0 8H4V14H14V8H18V18H0V8Z" fill="#0072CE"/>
</svg>
